X:11
T:Wellington’s Victory. RHu.011
S:R.Hughes MS,1823,Whitchurch,Shrops.
A:Whitchurch, Shropshire
Z:Neil Brookes 2006
M:4/4
L:1/8
Q:1/2=70
R:Misc.
K:C
e>d|c2g>fe2c’b|agab g2f>e|f2f>d e2e>c|dcded2 ed|!
c2g>fe2c’b|agab g2f>e|e2c>e dcde|cBcd c2::!
ef|g2e>gc’2g>e|f2a>fd3f|e2g>e c3e|dcded2ef|!
g2e>gc’2g>e|f2a>fd3f|e2c>e dcde|cBcdc2:|

